assets/Muted speaker/Flat/muted_speaker_flat.svg

<svg width="32" height="32" viewBox="0 0 32 32" fill="none" xmlns="http://www.w3.org/2000/svg">
<path d="M7.80282 23H12.0122L13.0122 16L12.0122 9H7.80282C6.80707 9 6 9.84705 6 10.8921V21.1079C6 22.153 6.80707 23 7.80282 23ZM26 16.0232C26 17.7104 24.6322 19.0781 22.945 19.0781C21.2579 19.0781 19.8901 17.7104 19.8901 16.0232C19.8901 14.336 21.2579 12.9683 22.945 12.9683C24.6322 12.9683 26 14.336 26 16.0232Z" fill="#9B9B9B"/>
<path d="M20.6106 26.8309L11.9976 23.0011L11.9976 9.01942L20.0474 5.23153C21.1704 4.70349 23.0356 5.2552 23.0356 6.49651V25.3045C23.0356 26.5512 21.7343 27.3705 20.6106 26.8309Z" fill="#D3D3D3"/>
<path d="M24.9692 26.6519L5.1497 6.83167C4.68545 6.36742 4.68545 5.61418 5.1497 5.14994C5.61394 4.6857 6.36718 4.6857 6.83142 5.14994L26.6509 24.9694C27.1151 25.4337 27.1151 26.1869 26.6509 26.6511C26.1866 27.1161 25.4342 27.1161 24.9692 26.6519Z" fill="#F8312F"/>
</svg>

<svg xmlns="http://www.w3.org/2000/svg" width="32" height="32" fill="none"><path fill="#9B9B9B" d="M7.803 23h4.21l1-7-1-7h-4.21C6.807 9 6 9.847 6 10.892v10.216C6 22.153 6.807 23 7.803 23ZM26 16.023a3.055 3.055 0 1 1-6.11 0 3.055 3.055 0 0 1 6.11 0Z"/><path fill="#D3D3D3" d="m20.61 26.83-8.612-3.829V9.02l8.05-3.787c1.122-.529 2.988.023 2.988 1.265v18.808a1.693 1.693 0 0 1-2.425 1.526Z"/><path fill="#F8312F" d="M24.97 26.652 5.15 6.832A1.19 1.19 0 0 1 6.83 5.15l19.82 19.82a1.19 1.19 0 0 1-1.682 1.682Z"/></svg>
